X:1026
T:Baillez-li
R:Bourrée à 2 temps
A:Bourbonnais
O:France
M:2/4
L:1/8
Q:1/8=220
K:G
G>F GB|AG FD|A>G Ac|BA G2|G>F GB|AG FA/2B/2|cB/2A/2 EF|G4:|
|:F>A FA|GA BA|F>A FA|GF E2|F>A FA|GA BA/2B/2|cB/2A/2 EF|G4:|


